icons/alipay-fill.svg

<svg xmlns="http://www.w3.org/2000/svg" width="24" height="24" fill="none"><g clip-path="url(#a)"><g><path fill="#121212" d="M21.422 15.358C17.592 14.205 15.367 13.518 14.744 13.296C15.3418 12.2588 15.7864 11.1405 16.064 9.976H12.8V8.872H16.8V8.192H12.8V6.344H11.264C10.984 6.344 10.952 6.592 10.952 6.592V8.184H7.2V8.864H10.952V9.968H7.88V10.584H14.104C13.8868 11.339 13.5891 12.0686 13.216 12.76C11.808 12.296 11.024 11.976 9.304 11.816C6.048 11.504 5.296 13.296 5.176 14.392C5 16.064 6.48 17.424 8.688 17.424C10.896 17.424 12.368 16.4 13.768 14.704C14.935 15.262 17.106 16.229 20.282 17.606C19.3664 18.9601 18.1324 20.0688 16.6885 20.8349C15.2445 21.601 13.6346 22.0011 12 22C6.477 22 2 17.523 2 12C2 6.477 6.477 2 12 2C17.523 2 22 6.477 22 12C22.0012 13.1442 21.8057 14.2801 21.422 15.358ZM8.432 16.368C6.096 16.368 5.728 14.888 5.848 14.272C5.968 13.656 6.648 12.856 7.952 12.856C9.448 12.856 10.784 13.24 12.392 14.016C11.256 15.496 9.872 16.368 8.432 16.368Z"/></g></g><defs><clipPath id="a"><rect width="24" height="24" fill="white"/></clipPath></defs></svg>

<svg width="24" height="24" fill="none" xmlns="http://www.w3.org/2000/svg"><g clip-path="url(#a)"><path d="M21.422 15.358c-3.83-1.153-6.055-1.84-6.678-2.062a12.413 12.413 0 0 0 1.32-3.32H12.8V8.872h4v-.68h-4V6.344h-1.536c-.28 0-.312.248-.312.248v1.592H7.2v.68h3.752v1.104H7.88v.616h6.224a10.967 10.967 0 0 1-.888 2.176c-1.408-.464-2.192-.784-3.912-.944-3.256-.312-4.008 1.48-4.128 2.576C5 16.064 6.48 17.424 8.688 17.424s3.68-1.024 5.08-2.72c1.167.558 3.338 1.525 6.514 2.902A9.99 9.99 0 0 1 12 22C6.477 22 2 17.523 2 12S6.477 2 12 2s10 4.477 10 10a9.982 9.982 0 0 1-.578 3.358Zm-12.99 1.01c-2.336 0-2.704-1.48-2.584-2.096.12-.616.8-1.416 2.104-1.416 1.496 0 2.832.384 4.44 1.16-1.136 1.48-2.52 2.352-3.96 2.352Z" /></g><defs><clipPath id="a"><path fill="#fff" d="M0 0h24v24H0z"/></clipPath></defs></svg>
